X: 3
T: Doctor MacLeod Of Alnwick
Z: G.Ryckeboer
S: https://thesession.org/tunes/6515#setting24105
R: barndance
M: 4/4
L: 1/8
K: Gmix
g>e |:d2 B<d .G2G2 | B>AG>B d2 G>B | c2 A<c .F2F2 | A>GF>A c2 g>e |
d2 B<d .G2G2 | B>AG>B d2 G>e | f2d>g d>c B>A |1 G4 .G2 g>e :|2 G4 .G2 d/e/f ||
|: g2 -g>e d2.g2 | B<G dB g2 d>e| f2-f>d c2f2 | A<F c<A .f2 d/e/f |
g2 -g>e d2.g2 | B<G dB g2 d>e| f2d>g d>c B>A |1 G4 .G2 d/e/f :|2 G4 .G2 d2||
|:G>d B<d d>G B<G|G>d B<G d2 c>A|Fc A<c cF A<F |Fc AF c2 d2|
G>d B<d d>G B<G|G>d B<d d2-d>e| f2d>g d>c B>A |1 G4 .G2 d2 :|2 G4 .G2 d/e/f ||
g2 d.g B.G d.B |g2 d.B g2 d.e |f2 c.f A.F c.A|f2 c.A f2 d/e/f |
g2 d.g B.G d.B |g2 d.B g2 d.e | f2d>g d>c B>A |1 G4 .G2 d/e/f :|2 G4 .G4||
